X: 4
T: Maggie's Pancakes
R: reel
M: 4/4
L: 1/8
K: Bmin
f ~B3 fgfe | d ~B3 GBdB | cAAd AAeA | AfAA edBc |d ~B3 fgfe | d ~B3 GBdB | cAdA e ~a3 | afec B2 :|f2 dB GBdB | caec d ~B3 | f2 dB GBdB | efdA Bcde |~f3 e fgfe | d ~B3 GBdB | cAdA e ~a3 | afec B2 :|


Tune 1316	Setting 14655

